X:1
T:LE PAS D'ARMES DU ROI JEAN
T:LE PAS D'ARMES DU ROI JEAN
T:Ballade de VICTOR HUGO
T:Camille Saint-Saëns
T:à Monsieur BUSSINE
C:C. Saint-Saëns (1852)
Z:Victor Hugo (1802-1885)
%%score ( 1 2 ) { ( 3 5 ) | ( 4 6 ) }
L:1/8
M:2/4
K:Ab
V:1 bass nm="Basse"
V:2 bass 
V:3 treble nm="Piano"
V:5 treble 
V:4 bass 
V:6 bass 
V:1
 z4 | z4 | z4 | z4 | z4 |"^Chant" z4 | z4 | z4 |"^assai marcato"!mf! z2 F, G, | %9
w: ||||||||Par Saint|
w: |||||||||
 !>!A,/G,/ F, E, D, | C,2 F, G, | !>!A,/G,/ F, A, B, | C2 C D | E/D/ C B, C | D/C/ B, A, B, | %15
w: Gil- * les,Viens * nous-|en, Mon a-|gi- * le A le-|zan! Viens, é-|cou- * te, Par la|rou- * te, Voir la|
w: ||||||
 C/B,/ A, G, C | F,2 z2 | z4 | z2 F, G, |{/B,} A, G, A, B, | C2 F, G, |{/B,} A, G, A, B, | C2 C D | %23
w: jou- * te Du roi|Jean!||Qu'un gros|Car- me Char- tri-|er Ait pour|ar- me L'en- cri-|er; Qu'une *|
w: ||||||||
 E B, B, C | D A, A, B, | CG, A, F, | C4- | C4- | C2 (B,/D/C/B,/ | A,/C/B,/A,/ G,/B,/A,/G,/ | %30
w: ﬁl- le, Sous la|gril- le, S'é- go-|sille * A pri-|er||* Ah! * * *||
w: |||||||
 F,) z F, G, | A,/G,/ F, E, D, | C,2 F, G, | A,/G,/ F, A, B, | C2 C D |[K:Ab] E/D/ C B, C | %36
w: * Nous qui|som- * mes, De par|Dieu, Gen- tils|hom- * mes De haut|lieu, Il faut|fai- * re Bruit sur|
w: ||||||
 D/C/ B, A, B, | C/B,/ A, G, C | F,2!f! [F,F] [C,C] | [F,F] [C,C] [F,F] [C,C] | [F,F]4- | %41
w: ter- * re, Et la|guer- * re N'est qu'un|jeu, Et la|guer- re N'est qu'un|jeu!|
w: |||||
 ([F,F-]4 | [F,F]2) z2 | z4 | z4 | z4 | z2!p! G, G, | A,G, =B, B, | C2 G, G, | A, G, =B, B, | %50
w: _|||||Cet- te|vil- 1e Aux longs|cris, Qui pro-|fi- le Son front|
w: |||||||||
 C2 G, G, | !>!B, A,/ z/ A, A, |"^cresc." C =B,/ z/ B, B, | =D C/ z/!f! D D x/ |[K:C] D4- | D4- | %56
w: gris, Des toits|frê- les, Cent tou-|rel- les, Clo- chers|grê- les, C'est Pa-|ris!|_|
w: ||||||
 D2 z2 | z4 | z2!f! G,3/2 G,/ |{/B,} A,3/2 G,/ A,3/2 B,/ | C2 G,3/2 G,/ | %61
w: ||Los aux|da- mes! Au roi|los! Vois 1es|
w: |||||
{/B,} A,3/2 G,/ A,3/2 B,/ | C2 C3/2 D/ | E3/2 B,/ B,3/2 B,/ | C3/2 A,/ A,3/2 B,/ | %65
w: ﬂam- mes Des champs|clos, Où la|fou- le Qui s'é-|crou- le, Hurle et|
w: |* * 3|||
{/D} C3/2 B,/ C3/2 A,/ | D2"^misterioso"!p! G,3/2 G,/ |"^e leggiero"{/B,} A,3/2 G,/ B,3/2 B,/ | %68
w: roule * A longs|flots! Sans at-|ten- dre, ça, pi-|
w: |||
 C2 E,3/2 E,/ | ^F,>E, F,3/2 ^G,/ |"^sempre" A,>!pp!B, C3/2 D/ | E3/2 D/ C3/2 B,/ | %72
w: quons! L'oei1 bien|tendre, * At- ta-|quons * De nos|sel- les Les don-|
w: ||||
"^Un poco rit." A,3/2 ^G,/ A,>B, | C3/2 B,/{B,D} C3/2 B,/ |"^A tempo" C4- | C2 z2 | z4 | %77
w: zel- les Ro- ses,|bel- les Aux ba1-|cons!|_||
w: |||||
"^assai dolce""^PP" (C2 D2 | G,3 A, | _B,2 C2 | A,4) | (C2 D2 | (G,3 A,)) | (_B,2 C2 | A,4) | %85
w: Là- haut|bril- le,|Sur ce|mur,|Y- seult,|ﬁlle _|Au front|pur;|
w: ||||||||
 (A,2 =B,2 | C4 | E2 D2 | C2) z2 | z2 .G, .F, | .E, .C, z2 | z2 .G, .F, | .E, .C, .C _D | %93
w: Y- seult,|fille|Au front|pur;|La- bas,|seu- les,|Force a-|yeu- les Por- tant|
w: ||||||||
 ._B, ._A, .G, .F, | C,2 .C, .B,, | .C, ._B,, .C, .B,, | .C,2 z2 |[K:C] z4 ||[K:Db]"^Animato" z4 | %99
w: gueu- 1es Sur a-|zur, Por- tant|gueu- les Sur a-|zur.|||
w: ||||||
 z4 | z2!f! F,3/2 F,/ | G, G,/ z C3/2 | D2 z2 | z4 | z2 F,3/2 F,/ | G, G,/ z/ C3/2 C/ | D2 z2 | %107
w: |On comrnen|* ce! Le|froi!||Coups de|lan- ce, Cris d'ef-|froi!|
w: ||||||||
 z2 A,3/2 A,/ | F, z D, z | z2 B,3/2 B,/ | G, z E, z | z2 C3/2 C/ | A, z F, z | z2 D3/2 D/ | %114
w: On se|for- ge,|On s'é-|gor- ge,|Par Saint-|Geor- ge!|Par le|
w: |||||||
 B, z B,3/2 B,/ | G3/2 E/ C3/2 A,/ | D3/2 C/ B,3/2 A,/ | G,3/2 F,/ E,3/2 D,/ | !>!A, z A,3/2 A,/ | %119
w: roi! On se|for- ge, On s'é-|gor- ge, Par Saint|Geor- ge! Par le|roi! Par Saint|
w: |||||
 F,3/2 F,/ _D,3/2 D,/ | !>!A, z!ff! A,3/2 A,/ | F,3/2 F,/ D,3/2 D,/ | !>!A, z z2 | z4 | z4 | %125
w: Geor- ge! Par 1e|roi! Par Saint|Geor- ge! Par le|roi!|||
w: ||||||
 z2!p! A, A, | __B,2 B, z | C,3 C, | D,2 z2 | z2 D, D, | _F,2 F, z | D,3 D, | A,,2 z2 | %133
w: Dans 1'o-|ra- ge,|Lis cour-|bé,|Un beau|pa- ge|Est tom-|bé;|
w: ||||||||
 z2!pp! A, A, | __B,2 A,2 | z2 A, A, | (__B,2 A,2) | z2 A, A, |"^morendo" A,4 | A,3 A, || %140
w: Il se|pâ- me,|I1 rend|l'â- me;|I1 ré-|clamne|Un ab-|
w: |||||||
[K:C] =G,4- | G,4- | G,2 z2 | z4 | z4 |!pp! A,2"^sempre" A,2 | G,2 G,2 | E,2 E,2 | G,4 | %149
w: bé.|||||Moi- nes,|vier- ges,|Por- te-|ront|
w: |||||||||
[K:C] (A,2 A,2 | G,2 G,2 | E,2 E,2 | G,4) | z4 | z4 | G,2 G,2 | _B,4 | G,4 | z4 | G,2 G,2 | _B,4 | %161
w: De grands|cierges *|Sur son|front;|||Et dans|1'om-|bre||Du lieu|som-|
w: ||||||||||||
 G,4 | z4 | G,2 G,2 | _B,4 | G,4 | C4 | F,4 | _B,4 | _E,2 E,2 | _A,4 | _D,2 D,2 | G,4 | F,2 F,2 | %174
w: bre.||Deux yeux|d'om-|bre|Pleu-|re-|ront!|Car ma-|da-|me I- sa-|beau|Suit son|
w: |||||||||||||
 _E,4- | E,4 | _D,4- | D,2 _D,2 | C,4- | C,4- | C,4- | C,4 ||[K:Ab]"^Tempo 1e" z4 | z4 | z4 | z4 | %186
w: âme|_|Au|_ tom-|beau.||||||||
w: ||||||||||||
 z4 | z4 | z4 | z4 | z2!mf! F, G, | (A,/G,/) F, E, D, | C,2 F, G, | (A,/G,/) F, A, B, | C2 C D | %195
w: ||||Cé, mon|fré- * re, Viens, ren-|trons Dans notre|ai- * re De ba-|rons! Va plus|
w: |||||||||
 (E/D/) C B, C | (!>!D/C/) B, A, B, | (C/B,/) A, G, G, | C2"^dim." F, G, | (A,/G,/) F, E, D, | %200
w: Vi- * te, Car au|gi- * te Qui t'in-|Vi- * te, Trou- ve-|rons, Toi 1'a-|voi- * ne Du ma-|
w: |||||
 C,2 F, G, | (A,/G,/) F, A, B, | C2 C D | (E/D/) C B, C | D/C/ B, A, B, | (C/B,/) A, G, C | %206
w: tin, Moi, le|moi- * ne Au- gus-|tin, Ce saint|homme, * * Suivant *|Ro- * me, Qui m'as-|som- * me De la-|
w: ||||||
"^P Sempre" F,2 F, G, |{/B,} (A,G,) A, B, | C2 F, G, |{/B,} A, G, A, B, | C2 C D | E B, B, C | %212
w: tin, Et ré-|dige * En ro-|main Tout pro-|di- ge De ma|main, Qu'à ma|charge * Il é-|
w: ||||||
 D A, A, B, | C G, A,3/2 F,/ | C4- | C4- | C2!pp! F, G, | (A,/G,/) F, E, D, | C, z F, G, | %219
w: mar- ge Sur un|1ar- ge Par- che-|min.||* Le vrai|si- * re Châ- te-|lain Laisse é-|
w: |||||||
 (A,/G,/) F, A, B, | C z C D | (E/D/) C B, C | (D/C/) B, A, B, | C z A, z | G, z C z | %225
w: cri- * re Le Vi-|lain Sa main|di- * gne, Quand il|si- * gne, E- gra-|ti- gne|Le Vé-|
w: ||||||
 F, z .F, .A,"^sempre    più" |!pp! .C .B, .A, .G, | .F, .D, .C, .B,, | A,, .B,, .C, .C, | %229
w: lin. Sa main|di- gne, Quand il|si- gne, E- gra-|ti- gne Le vé-|
w: ||||
 F,, z z2 | z4 | !fermata!z4 |] %232
w: lin.|||
w: |||
V:2
 x4 | x4 | x4 | x4 | x4 | x4 | x4 | x4 | x4 | x4 | x4 | x4 | x4 | x4 | x4 | x4 | x4 | x4 | x4 | %19
 x4 | x4 | x4 | x4 | x4 | x4 | x4 | x4 | x4 | x4 | x4 | x4 | x4 | x4 | x4 | x4 |[K:Ab] x4 | x4 | %37
 x4 | x4 | x4 | x4 | x4 | x4 | x4 | x4 | x4 | x4 | x4 | x4 | x4 | x4 | x4 | x4 | x9/2 |[K:C] x4 | %55
 x4 | x4 | x4 | x4 | x4 | x4 | x4 | x4 | x4 | x4 | x4 | x4 | x4 | x4 | x4 | x4 | x4 | x4 | x4 | %74
 x4 | x4 | x4 | x4 | x4 | x4 | x4 | x4 | x4 | x4 | x4 | x4 | x2 x2 | G2 =B,2 | x4 | x4 | x4 | x4 | %92
 x4 | x4 | x4 | x4 | x4 |[K:C] x4 ||[K:Db] x4 | x4 | x4 | x4 | x4 | x4 | x4 | x4 | x4 | x4 | x4 | %109
 x4 | x4 | x4 | x4 | x4 | x4 | x4 | x4 | x4 | x4 | x4 | x4 | F3/2 F/ D3/2 D/ | x4 | x4 | x4 | x4 | %126
 x4 | x4 | x4 | x4 | x4 | x4 | x4 | x4 | x4 | x4 | x4 | x4 | x4 | x4 ||[K:C] x4 | x4 | x4 | x4 | %144
 x4 | x4 | x4 | x4 | x4 |[K:C] x4 | x4 | x4 | x4 | x4 | x4 | x4 | x4 | x4 | x4 | x4 | x4 | x4 | %162
 x4 | x4 | x4 | x4 | x4 | x4 | x4 | x4 | x4 | x4 | x4 | x4 | x4 | x4 | x4 | x4 | x4 | x4 | x4 | %181
 x4 ||[K:Ab] x4 | x4 | x4 | x4 | x4 | x4 | x4 | x4 | x4 | x4 | x4 | x4 | x4 | x4 | x4 | x4 | x4 | %199
 x4 | x4 | x4 | x4 | x4 | x4 | x4 | x4 | x4 | x4 | x4 | x4 | x4 | x4 | x4 | x4 | x4 | x4 | x4 | %218
 x4 | x4 | x4 | x4 | x4 | x4 | x4 | x4 | x4 | x4 | x4 | x4 | x4 | x4 |] %232
V:3
 z2!mf!"^All. energico" .F.G | (!>!A/G/F) .[CE].[B,D] | .[A,C]2 .F.G | (!>!A/G/F) .[FA].[GB] | %4
 .[Ac]2 .[Ac].[Bd] | (!>![ce]/[Bd]/[Ac]) .[GB].[Ac] | (!>![Bd]/[Ac]/[GB]) .[FA].[GB] | %7
 (!>![Ac]/[GB]/[FA]) .[=EG].[Ec] | F2 FG | A/G/F [CE][B,D] | [A,C]2 FG | A/G/F [FA][GB] | %12
 [Ac]2 [Ac][Bd] | [ce]/[Bd]/[Ac] [GB][Ac] | [Bd]/[Ac]/[GB] [FA][GB] | [Ac]/[GB]/[FA] [=EG][Ec] | %16
 F2!f! .F.C | .F.C.F.C | .F2 z2 |!mf! [FA] z [FA] [GB] | [Ac] z z2 | [FA] z [FA] [GB] | [Ac] z z2 | %23
 ([Ace][GB]) z2 | ([GBd][FA]) z2 | [=EGc] z [FAc] z | [Cc] z .[=eg].[fa] | %27
 ([gb][=eg]) .[fa].[=da=b] | .[=egc']2 .[GB].[Cc] | .[FA].[Cc].[=EG].[Cc] | .F2 FG | %31
 A/G/F [CE][B,D] | [A,C]2 FG | A/G/F [FA][GB] | [Ac]2 [Ac][Bd] |[K:Ab] [ce]/[Bd]/[Ac] [GB][Ac] | %36
 [Bd]/[Ac]/[GB] [FA][GB] | [Ac]/[GB]/[FA] [=EG][Ec] | F2!f! .[Ff].[Cc] | .[Ff].[Cc].[Ff].[Cc] | %40
 .[Ff]2!ff!!<(! (F/=E/_E/=D/ | _D/!<)!C/_C/B,/ =A,/_A,/G,/_G,/ | F,2)"_dim." F._A | .c.B.A.G | %44
 .F.E.=D.C | .=B,.=D.C.E |!p! .G,.G,.G,.G, | .G,.G,.G,.G, | .G,.G,.G,.G, | .G,.G,.G,.G, | G,CCC | %51
 CCCC | =DDDD | [CF][CF] [C=D^F][CDF] x/ |[K:C]!f! [B,G] z (3.d.G.G | (3.d.G.G (3.d.G.G | %56
 d z (3dgg | (3[dd']gg (3[dd']gg | (3[dd']gg!mf! (3.D.G,.G | (3.D.G,.F (3.D.G,.F | %60
 (3.C.G,.E (3.C.G,.E |"_sempre staccato" (3DG,F (3DG,F | (3CG,E (3CG,E | (3EB,B (3DB,E | %64
 (3CA,E (3CA,E | (3CA,^F (3CA,E | (3DB,!pp!G (3DG,G | (3DG,F (3DG,F | (3CA,E (3A,E,E | %69
 (3B,E,F (3B,E,D | (3A,E,C (3A,E,C | (3A,E,C (3A,E,C | [E,A,C]"_Suivez" z z2 | [E,A,C] z z2 | z4 | %75
 (G/_B/c/e/ g/_b/d'/c'/) | (c'/a/f/"_m.g."c/ (3AFC) | (c'/a/f/c/ (3AFC) | (d'/g/f/d/ (3_BFD) | %79
 (c'/a/f/c/ (3_BGC) | (c'/a/f/c/ (3AFC) | (c'/a/f/c/ (3AFC) | (d'/g/f/d/ (3_BFD) | %83
 (c'/g/ e/c/ (3_BGC) | (c'/a/ f/c/ (3AFC) | (f'/c'/a/f/ c/A/F/C/) | (e'/c'/g/e/ (3cGE) | %87
 (=b/g/f/d/ (3GFD) | [egc']2 .c._d | ._B._A .G.F | .E.C .c._d | ._B._A.G.F | .E.C .c._d | %93
 ._B._A.G.F | .E z .C z | .C z .C z | .C z!<(! .[Cc]!<)!.[=B,=B] | %97
"^cresc." .[Cc].[B,B] .[Cc].[Cc] ||[K:Db]!ff!"^Animato" !>![Dd]3 D/D/ | !>!D3 D/D/ | %100
 D2!p! .[A,DF] z | .[B,DG] z .[__B,EG]2 | .[A,DF] z z D/D/ | !>!D3 D/D/ | !>!D2!p! .[A,DF] z | %105
 .[B,DG] z .[__B,EG]2 |!f! [A,DF] z (D/E/F/G/ | A) z (A/G/ F/E/ | D) z (5:4:5(D/E/F/G/A/ | %109
 B) z (B/A/G/F/ | E) z (5:4:5(E/F/G/A/B/) | c z (c/B/ A/G/ | F) z (5:4:5(F/G/A/B/c/ | %113
 d) z (d/c/ B/A/ |"_assai marcato" G) z Bz/B/ | gz/e/cz/A/ | dz/c/Bz/A/ | Gz/F/Ez/D/ | %118
 A z [EAc] z | [FAd] z [FAd] z | [EAc] z!ff! [Aa]z/[Aa]/ | [Ff] z/ [Ff]/[Dd] z/ [Dd]/ | %122
 [A,A] z z2 | z4 | z4 | z4 |!p! [=CEG__B]4- | ((([CEGB]4 | [D_FA]))) z z2 | z4 | [=G,B,D_F]4- | %131
 (((([G,B,DF]4 | [A,CE]2))))!pp! [E-A]2 | [_F__B]2 [EA]2 | z2 [ea-]2 | [=Gd_f__b]2 [Acea]2 | %136
 z2 [E-A]2 | [_F__B]2"_morendo" [EA]2 | z2 [ea]2 | z2 (A2 ||[K:C] =G4-) | G4 |!pp! [Gceg]4- | %143
"_sempre" [Gceg]4 | ([cea]4 | [cea]4 | [Bdg]4 | [Ace]4 | [Bdg]4) |[K:C] ([cfa]4 | [Bdg]4 | [Ace]4 | %152
 [Bdg]4) | ([ceg]4 | [cfc']4 | [ceg]4 |!<(!!>(! [df_b]4!<)!!>)! | [ceg]4) |[K:C] ([cfc']4 | %159
 [ceg]4 |!<(!!>(! [df_b]4!<)!!>)! | [ceg]4 | [cfc']4 | [ceg]4 | [_df_b]4 | [ceg]4) | %166
[K:C] ([cfc']4 | [_B_df]4 | [_B_e_b]4 | _A4 | [_A_d_a]4 | [G_B_d]4 | [Gcg]4 | [F_Acf]4) | %174
[K:C] [_E_Ac_e]4- | [EAce]4 | [DF_B_d]4- | [DFBd]4 | [CEGc]4 |[I:staff +1] !>![F,C]4 | %180
 !>![E,_B,C]4 | !>![F,,C,]4 ||[K:Ab]!f![I:staff -1] !>![cc']"_tre corde" z .[C=E].[=DF] | %183
 ([=EG]/[=DF]/[CE]) z2 | !>!!wedge![cc'] z .[=DF].[=EG] | ([FA]/[=EG]/[=DF]) z2 | %186
 !>!!wedge![cc'] z .[=EG].[FA] | ([GB]/[FA]/[=EG])"_dim." .[Bd].[Ac] | .[GB].[FA] .[=EG].[_DF] | %189
 .[C=E].[B,D].[A,C].[G,E] | .[F,F] z!mf! FG | A/G/F [CE][B,D] | [A,C]2 FG | A/G/F [FA][GB] | %194
 [Ac]2 [Ac][Bd] | [ce]/[Bd]/[Ac] [GB][Ac] | [Bd]/[Ac]/[GB] [FA][GB] | [Ac]/[GB]/[FA] [FG][FG] | %198
 [=Ec]2"_dim." FG | A/G/F [CE][B,D] | [A,C]2 FG | A/G/F [FA][GB] | [Ac]2 [Ac][Bd] | %203
 [ce]/[Bd]/[Ac] [GB][Ac] | [Bd]/[Ac]/[GB] [FA][GB] | [Ac]/[GB]/[FA] [=EG][Ec] |"_P sempre" F2 z2 | %207
 [FA] z [FA][GB] | [Ac]2 z2 | [FA] z [FA][GB] | [Ac]2 z2 | ([Ace][GB]) z2 | ([GBd][FA]) z2 | %213
 [=EGc] z [FAc] z | [Cc] z B/d/c/B/ | A/c/B/A/ G/B/A/G/ | .F z z2 | z2!pp! .[CE].[B,D] | %218
 .[A,C] z z2 | z2 .[FA].[GB] | .[Ac] z z2 | .[Ac].[ce] z2 | .[GB].[Bd] z2 | [FAc] z [FA] z | %224
 [FG] z [=EGc] z | F z .F.A |!pp! .c.B.A.G | .F.D.C.B, | .A,.B,.C.C | .F, z!ppp! z2 | .F, z z2 | %231
 .F, z !fermata!z2 |] %232
V:4
 z4 | z2 .[F,,F,].[B,,F,] | .[F,,F,]2 z2 | z2 .[F,,F,].[D,,D,] | .[A,,,A,,]2 z2 | %5
 .[A,,A,].[A,,,A,,] z2 | .[B,,B,].[B,,,B,,] z2 | .[C,C].[C,,C,] .[C,,C,].[C,,C,] | [F,,F,]2 z2 | %9
 z2 [F,,F,][B,,F,] | [F,,F,]2 z2 | z2 [F,,F,][D,,D,] | [A,,,A,,]2 z2 | [A,,A,][A,,,A,,] z2 | %14
 [B,,B,][B,,,B,,] z2 | [C,C][C,,C,] [C,,C,][C,,C,] | [F,,F,]2 .[F,,F,].[C,,C,] | %17
 .[F,,F,].[C,,C,].[F,,F,].[C,,C,] | .[F,,F,]2 z2 | [F,,F,] z [F,,F,] [E,,E,] | [A,,,A,,] z z2 | %21
 [F,,F,] z [F,,F,] [E,,E,] | [A,,,A,,] z z2 | ([A,,A,][E,E]) z2 | ([B,,B,][D,D]) z2 | %25
 [C,C] z [F,,F,] z | [C,,C,] z z2 | ([GB][CG])[FA][F,F] | .[C,C]2 z2 | z4 | .[F,,F,]2 z2 | %31
 z2 [F,,F,][B,,F,] | [F,,F,]2 z2 | z2 [F,,F,][D,,D,] | [A,,,A,,]2 z2 |[K:Ab] [A,,A,][A,,,A,,] z2 | %36
 [B,,B,][B,,,B,,] z2 | [C,C][C,,C,] [C,,C,][C,,C,] | [F,,F,]2 .[F,,F,].[C,,C,] | %39
 .[F,,F,].[C,,C,].[F,,F,].[C,,C,] |!ped! [F,,F,]2 (F,,/=E,,/_E,,/=D,,/ | %41
 _D,,/C,,/_C,,/B,,,/ =A,,,/_A,,,/G,,,/_G,,,/ | F,,,2)!ped-up! .[F,,F,].[A,,A,] | %43
 .[C,C].[B,,B,].[A,,A,].[G,,G,] | .[F,,F,].[E,,E,].[=D,,=D,].[C,,C,] | %45
 .[=B,,,=B,,].[=D,,=D,].[C,,C,].[E,,E,] | [G,,,G,,] z z2 | z2 [G,,=D,F,] z | [C,E,] z z2 | %49
 z2 [G,,=D,F,] z | [C,E,] C,C,C, |!>(! C,!>)!C,C,C, | =D,D,D,D, | F,F, A,,,2 x/ | %54
[K:C] [G,,,G,,] z z2 | z4 | z2!ped! (3D,[G,,G,][G,,G,]!ped-up! | %57
 (3D,[G,,G,][G,,G,] (3D,[G,,G,][G,,G,] | (3D,[G,,G,][G,,G,] z2 | [G,,G,] z [G,,G,] z | C, z z2 | %61
 [G,,G,] z [G,,G,] z | C, z z2 | E,, z ^G,, z | A,, z z2 | D, z D,, z | G,, z z2 | %67
 [G,,,G,,] z [G,,,G,,] z | [C,,C,] z z2 | E,, z E,, z | A,,z/B,,/ C,z/D,/ | E,zD,/ C, z/ | %72
 A,, z z2 | A,, z z2 |"^A tempo"!ped! (G,,,/G,,/C,/E,/ G,/_B,/C/E/)!ped-up! | z4 | [F,,,F,,]2 z2 | %77
 z4 | z4 | z4 |!ped! [F,,,F,,]2 z2!ped-up! | z4 | z4 | z2 x2 |!ped! [F,,,F,,]2 x2!ped-up! | z2 x2 | %86
!ped! [G,,,G,,]2 x2 | G,,2 z2!ped-up! | [C,,C,]2 .C _D | ._B,._A, .G,.F, | .E,.C, .C _D | %91
 ._B,._A,.G,.F, | .E,.C, .C_D | ._B,._A,.G,.F, | .E, z .C, z | .C, z .C, z | %96
 .C, z .[C,,C,].[=B,,,=B,,] | .[C,,C,].[B,,,B,,] .[C,,C,].[C,,C,] ||[K:Db]!ped! !///-!D,,2 C,,2 | %99
"^il basso sempre   " !///-!D,,2 C,,2 | !///-!D,,2!ped-up! C,,2 | !///-!D,,2 C,,2 | %102
!ped! !///-!D,,2 C,,2 | !///-!D,,2 C,,2 |!ped-up! !///-!D,,2 C,,2 | !///-!D,,2 C,,2 | %106
"^sempre" !wedge!D,,!wedge!A,,!wedge!F,,!wedge!D,, | .C,,.E,,.A,,,.C,, | D,,A,,F,,E,, | %109
 D,,F,,B,,,D,, | E,,B,,G,,F,, | E,,G,,C,,E,, | F,,C,A,,G,, | F,,A,,D,,F,, | G,, z B,,z/D,/ | %115
 G,z/E,/C,z/A,,/ | D,z/C,/B,,z/A,,/ | G,,z/F,,/E,,z/D,,/ | A,, z [A,,,A,,] z | %119
 [D,,D,] z [D,,D,] z | [A,,,A,,] z [A,,A,]z/[A,,A,]/ | [F,,F,] z/ [F,,F,]/[D,,D,] z/ [D,,D,]/ | %122
!ped!"^molto dim."!>(! [A,,,A,,][A,,,A,,]!ped-up![A,,,A,,][A,,,A,,] | %123
 [A,,,A,,][A,,,A,,][A,,,A,,][A,,,A,,]!>)! |!>(! [A,,,A,,][A,,,A,,][A,,,A,,]!>)![A,,,A,,] | %125
!p! [A,,,A,,][A,,,A,,][A,,,A,,][A,,,A,,] | [A,,,A,,][A,,,A,,][A,,,A,,][A,,,A,,] | %127
 [A,,,A,,][A,,,A,,][A,,,A,,][A,,,A,,] | [A,,,A,,][A,,,A,,][A,,,A,,][A,,,A,,] | %129
 [A,,,A,,][A,,,A,,][A,,,A,,][A,,,A,,] | [A,,,A,,][A,,,A,,][A,,,A,,][A,,,A,,] | %131
 [A,,,A,,][A,,,A,,][A,,,A,,][A,,,A,,] | [A,,,A,,]2 [A,C-]2 | [=G,D]2 [A,C]2 | z4 | z4 | %136
 z2 [A,C-]2 | [=G,D]2 [A,C]2 | z2 x2 | z2 (A,2 ||[K:C] .=G,4-) | G,4 | [C,G,-C-]4 | [C,G,C]4 | %144
 ([A,C]4 | [F,A,C]4 | [G,B,D]4 | [A,CE]4 | [G,B,D]4) |[K:C] ([F,A,C]4 | [G,B,D]4 | [A,CE]4 | %152
 [G,B,D]4) |[K:treble] ([CEG]4 | [A,CF]4 | [CEG]4 | [_B,DF]4 | [CEG]4) |[K:C] ([A,CF]4 | [CEG]4 | %160
 [_B,DF]4 | [CEG]4 | [A,CF]4 | [CEG]4 | [_B,_DF]4 | [CEG]4) |[K:C] ([_A,CF]4 | [_B,_DF]4 | %168
[K:bass] [G,_B,_E]4 | [_A,C_E]4 | _D4 | [G,_B,_D]4 | [E,G,C]4 | [F,_A,C]4) | %174
[K:C]!ped! [_A,,_E,_A,C]4- | [A,,E,A,C]4 | [_B,,F,_B,]4- | [B,,F,B,]4 | [C,E,G,]4 | !>![_A,,C,]4 | %180
 !>![G,,C,]4 | !>![D,_A,=B,C]4 ||[K:Ab] [C,,C,] z .[C,=E,].[=D,F,] | ([=E,G,]/[=D,F,]/[C,E,]) z2 | %184
 !>!!wedge![C,,C,] z .[=D,F,].[=E,G,] | ([F,A,]/[=E,G,]/[=D,F,]) z2 | %186
 !>!!wedge![C,,C,] z .[=E,G,].[F,A,] | ([G,B,]/[F,A,]/[=E,G,]) z2 | z4 | z4 | .[F,,,F,,] z z2 | %191
 z2 [F,,F,][B,,F,] | [F,,F,]2 z2 | z2 [F,,F,][D,,D,] | [A,,,A,,]2 z2 | [A,,A,][A,,,A,,] z2 | %196
 [B,,B,][B,,,B,,] z2 | [C,C][C,,C,] [D,,D,][D,,D,] | [C,,C,]2 z2 | z2 [F,,F,][B,,F,] | %200
 [F,,F,]2 z2 | z2 [F,,F,][D,,D,] | [A,,,A,,]2 z2 | [A,,A,][A,,,A,,] z2 | [B,,B,][B,,,B,,] z2 | %205
 [C,C][C,,C,] [C,,C,][C,,C,] | [F,,F,]2 z2 | [F,,F,] z [F,,F,][E,,E,] | [A,,,A,,]2 z2 | %209
 [F,,F,] z [F,,F,][E,,E,] | [A,,,A,,]2 z2 | ([A,,A,][E,E]) z2 | ([B,,B,][D,D]) z2 | %213
 [C,C] z [F,,F,] z | [C,,C,] z .[G,B,].[C,C] | .[F,A,].[C,C] .[=E,G,].[C,C] | .[F,,F,] z z2 | %217
 z2 .[F,,F,].[B,,F,] | .[F,,F,] z z2 | z2 .[F,,F,].[D,,D,] | .[A,,,A,,] z z2 | %221
 .[A,,A,].[A,,,A,,] z2 | [B,,B,][B,,,B,,] z2 | [C,,C,] z [C,,C,] z | [C,,C,] z [C,,C,] z | %225
 [F,,F,]"^sempre    più" z .[F,,F,] .[A,,A,] | .[C,C].[B,,B,].[A,,A,].[G,,G,] | %227
 .[F,,F,].[D,,D,].[C,,C,].[B,,,B,,] | .[A,,,A,,].[B,,,B,,].[C,,C,].[C,,C,] | .[F,,,F,,] z z2 | %230
 .[F,,,F,,] z z2 | .[F,,,F,,] z !fermata!z2 |] %232
V:5
 x4 | x4 | x4 | x4 | x4 | x4 | x4 | x4 | x4 | x4 | x4 | x4 | x4 | x4 | x4 | x4 | x4 | x4 | x4 | %19
 x4 | x4 | x4 | x4 | x4 | x4 | x4 | x2 .[CG].[FA] | x4 | x4 | x4 | x4 | x4 | x4 | x4 | x4 | %35
[K:Ab] x4 | x4 | x4 | x4 | x4 | x4 | x4 | x4 | x4 | x4 | x4 | x4 | x4 | x4 | x4 | x4 | x4 | x4 | %53
 x9/2 |[K:C] x4 | x4 | x4 | x4 | x4 | x4 | x4 | x4 | x4 | x4 | x4 | x4 | x4 | x4 | x4 | x4 | x4 | %71
 x4 | x4 | x4 | x4 | x4 | x4 | x4 | x4 | x4 | x4 | x4 | x4 | x4 | x4 | x4 | x4 | x4 | x4 | x4 | %90
 x4 | x4 | x4 | x4 | x4 | x4 | x4 | x4 ||[K:Db] x4 | x4 | x4 | x4 | x4 | x4 | x4 | x4 | x4 | x4 | %108
 x4 | x4 | x4 | x4 | x4 | x4 | x4 | x4 | x4 | x4 | x4 | x4 | x4 | x4 | x4 | x4 | x4 | x4 | x4 | %127
 x4 | x4 | x4 | x4 | x4 | x4 | x4 | x2 [A-c]2 | x4 | x4 | x4 | x2 [Ac]2 | x4 ||[K:C] x4 | x4 | x4 | %143
 x4 | x4 | x4 | x4 | x4 | x4 |[K:C] x4 | x4 | x4 | x4 | x4 | x4 | x4 | x4 | x4 |[K:C] x4 | x4 | %160
 x4 | x4 | x4 | x4 | x4 | x4 |[K:C] x4 | x4 | x4 | x4 |[I:staff +1] [F,_A,]4 | x4 | x4 | x4 | %174
[K:C] x4 | x4 | x4 | x4 | x4 | x4 | x4 | x4 ||[K:Ab] x4 | x4 | x4 | x4 | x4 | x4 | x4 | x4 | x4 | %191
 x4 | x4 | x4 | x4 | x4 | x4 | x4 | x4 | x4 | x4 | x4 | x4 | x4 | x4 | x4 | x4 | x4 | x4 | x4 | %210
 x4 | x4 | x4 | x4 | x4 | x4 | x4 | x4 | x4 | x4 | x4 | x4 | x4 | x4 | x4 | x4 | x4 | x4 | x4 | %229
 x4 | x4 | x4 |] %232
V:6
 x4 | x4 | x4 | x4 | x4 | x4 | x4 | x4 | x4 | x4 | x4 | x4 | x4 | x4 | x4 | x4 | x4 | x4 | x4 | %19
 x4 | x4 | x4 | x4 | x4 | x4 | x4 | x4 | x4 | x4 | x4 | x4 | x4 | x4 | x4 | x4 |[K:Ab] x4 | x4 | %37
 x4 | x4 | x4 | x4 | x4 | x4 | x4 | x4 | x4 | x4 | x4 | x4 | x4 | x4 | (=E,,F,,) z2 | %52
 (^F,,G,,) z2 | A,,2 x5/2 |[K:C] x4 | x4 | x4 | x4 | x4 | x4 | x4 | x4 | x4 | x4 | x4 | x4 | x4 | %67
 x4 | x4 | x4 | x4 | x4 | x4 | x4 | x4 | x4 | x4 | x4 | x4 | x4 | x4 | x4 | x4 | x4 | x4 | x4 | %86
 x4 | x4 | x4 | x4 | x4 | x4 | x4 | x4 | x4 | x4 | x4 | x4 ||[K:Db] F, z z2 | x4 | x4 | x4 | x4 | %103
 x4 | x4 | x4 | x4 | x4 | x4 | x4 | x4 | x4 | x4 | x4 | x4 | x4 | x4 | x4 | x4 | x4 | x4 | x4 | %122
 x4 | x4 | x4 | x4 | x4 | x4 | x4 | x4 | x4 | x4 | x4 | x4 | x4 | x4 | x4 | x4 | x4 | x4 || %140
[K:C] x4 | x4 | x4 | x4 | x4 | x4 | x4 | x4 | x4 |[K:C] x4 | x4 | x4 | x4 |[K:treble] x4 | x4 | %155
 x4 | x4 | x4 |[K:C] x4 | x4 | x4 | x4 | x4 | x4 | x4 | x4 |[K:C] x4 | x4 |[K:bass] x4 | x4 | x4 | %171
 x4 | x4 | x4 |[K:C] x4 | x4 | x4 | x4 | x4 | x4 | x4 | x4 ||[K:Ab] x4 | x4 | x4 | x4 | x4 | x4 | %188
 x4 | x4 | x4 | x4 | x4 | x4 | x4 | x4 | x4 | x4 | x4 | x4 | x4 | x4 | x4 | x4 | x4 | x4 | x4 | %207
 x4 | x4 | x4 | x4 | x4 | x4 | x4 | x4 | x4 | x4 | x4 | x4 | x4 | x4 | x4 | x4 | x4 | x4 | x4 | %226
 x4 | x4 | x4 | x4 | x4 | x4 |] %232

